packages/katcn/src/icons/svg/contrast.svg

<svg width="24" height="25" viewBox="0 0 24 25" fill="none" xmlns="http://www.w3.org/2000/svg">
<path d="M13 14.612V10.012V5.31201V4.41201C13.3 4.41201 13.5 4.51201 13.8 4.51201C14.3 4.61201 14.8 4.31201 15 3.71201C15.2 3.11201 14.8 2.61201 14.2 2.51201C13.5 2.41201 12.7 2.31201 12 2.31201C6.5 2.31201 2 6.81201 2 12.312C2 17.812 6.5 22.312 12 22.312C12.7 22.312 13.5 22.212 14.2 22.112C14.7 22.012 15.1 21.412 15 20.912C14.9 20.412 14.3 20.012 13.8 20.112C13.5 20.212 13.3 20.212 13 20.212V19.312V14.612ZM4 12.312C4 8.21201 7.1 4.91201 11 4.41201V5.31201V10.012V14.712V19.312V20.212C7.1 19.712 4 16.412 4 12.312Z" fill="black"/>
<path d="M20.1 16.412C19.6 16.112 19 16.212 18.7 16.712C18.1 17.612 17.4 18.312 16.6 18.912C16.1 19.212 16 19.812 16.4 20.312C16.6 20.612 16.9 20.712 17.2 20.712C17.4 20.712 17.6 20.612 17.8 20.512C18.9 19.812 19.8 18.812 20.5 17.812C20.7 17.312 20.6 16.712 20.1 16.412Z" fill="black"/>
<path d="M21.8 10.412C21.7 9.91201 21.2 9.51201 20.6 9.61201C20.1 9.71201 19.7 10.212 19.8 10.812C20 11.312 20 11.812 20 12.312C20 12.812 20 13.312 19.9 13.812C19.8 14.312 20.2 14.912 20.7 15.012C20.8 15.012 20.8 15.012 20.9 15.012C21.4 15.012 21.8 14.712 21.9 14.212C22 13.612 22.1 12.912 22.1 12.312C22 11.712 21.9 11.012 21.8 10.412Z" fill="black"/>
<path d="M18.7 7.91201C18.9 8.21201 19.2 8.41201 19.5 8.41201C19.7 8.41201 19.9 8.31201 20 8.21201C20.5 7.91201 20.6 7.31201 20.3 6.81201C19.6 5.71201 18.7 4.81201 17.6 4.11201C17.1 3.81201 16.5 3.91201 16.2 4.31201C15.9 4.81201 16 5.41201 16.4 5.71201C17.4 6.31201 18.1 7.11201 18.7 7.91201Z" fill="black"/>
</svg>

<svg xmlns="http://www.w3.org/2000/svg" fill="none" viewBox="0 0 24 25"><path fill="#000" d="M13 14.612v-10.2c.3 0 .5.1.8.1.5.1 1-.2 1.2-.8s-.2-1.1-.8-1.2c-.7-.1-1.5-.2-2.2-.2-5.5 0-10 4.5-10 10s4.5 10 10 10c.7 0 1.5-.1 2.2-.2.5-.1.9-.7.8-1.2s-.7-.9-1.2-.8c-.3.1-.5.1-.8.1zm-9-2.3c0-4.1 3.1-7.4 7-7.9v15.8c-3.9-.5-7-3.8-7-7.9m16.1 4.1c-.5-.3-1.1-.2-1.4.3-.6.9-1.3 1.6-2.1 2.2-.5.3-.6.9-.2 1.4.2.3.5.4.8.4.2 0 .4-.1.6-.2 1.1-.7 2-1.7 2.7-2.7.2-.5.1-1.1-.4-1.4m1.7-6c-.1-.5-.6-.9-1.2-.8-.5.1-.9.6-.8 1.2.2.5.2 1 .2 1.5s0 1-.1 1.5.3 1.1.8 1.2h.2c.5 0 .9-.3 1-.8.1-.6.2-1.3.2-1.9-.1-.6-.2-1.3-.3-1.9m-3.1-2.5c.2.3.5.5.8.5.2 0 .4-.1.5-.2.5-.3.6-.9.3-1.4q-1.05-1.65-2.7-2.7c-.5-.3-1.1-.2-1.4.2-.3.5-.2 1.1.2 1.4 1 .6 1.7 1.4 2.3 2.2"/></svg>
